packages/icons/svgs/duotone/Source=position-marker.svg

<svg width="24" height="24" viewBox="0 0 24 24" fill="none" xmlns="http://www.w3.org/2000/svg">
<g clip-path="url(#clip0_842_1079)">
<path fill-rule="evenodd" clip-rule="evenodd" d="M12 2C9.23858 2 7 4.23858 7 7C7 9.76142 9.23858 12 12 12C14.7614 12 17 9.76142 17 7C17 4.23858 14.7614 2 12 2ZM5 7C5 3.13401 8.13401 0 12 0C15.866 0 19 3.13401 19 7C19 10.866 15.866 14 12 14C8.13401 14 5 10.866 5 7Z" fill="black" style="fill:black;fill-opacity:1;"/>
<path fill-rule="evenodd" clip-rule="evenodd" d="M12 12C12.5523 12 13 12.4477 13 13V19C13 19.5523 12.5523 20 12 20C11.4477 20 11 19.5523 11 19V13C11 12.4477 11.4477 12 12 12Z" fill="black" style="fill:black;fill-opacity:1;"/>
<path opacity="0.5" fill-rule="evenodd" clip-rule="evenodd" d="M8.99438 17.0992C9.05283 17.6484 8.65501 18.1409 8.10582 18.1994C6.10603 18.4122 4.45265 18.7794 3.32859 19.22C2.76215 19.4421 2.38533 19.6617 2.16768 19.8479C2.08788 19.9161 2.04371 19.9668 2.01989 19.9996C2.05923 20.0557 2.15964 20.1683 2.40637 20.3274C2.8411 20.6077 3.53643 20.8979 4.48498 21.1566C6.36775 21.6701 9.02511 22 12 22C14.9749 22 17.6322 21.6701 19.515 21.1566C20.4636 20.8979 21.1589 20.6077 21.5936 20.3274C21.8404 20.1683 21.9408 20.0557 21.9801 19.9996C21.9563 19.9668 21.9121 19.9161 21.8323 19.8479C21.6147 19.6617 21.2379 19.4421 20.6714 19.22C19.5474 18.7794 17.894 18.4122 15.8942 18.1994C15.345 18.1409 14.9472 17.6484 15.0056 17.0992C15.0641 16.55 15.5566 16.1522 16.1058 16.2106C18.203 16.4338 20.0496 16.8281 21.4013 17.358C22.0728 17.6212 22.6778 17.9391 23.1325 18.3281C23.5816 18.7123 24 19.2715 24 20C24 20.9438 23.3113 21.5996 22.6775 22.0082C21.9989 22.4458 21.0833 22.802 20.0412 23.0861C17.9428 23.6584 15.1001 24 12 24C8.89989 24 6.05725 23.6584 3.95877 23.0861C2.91669 22.802 2.00109 22.4458 1.32254 22.0082C0.688745 21.5996 0 20.9438 0 20C0 19.2715 0.418422 18.7123 0.86754 18.3281C1.32223 17.9391 1.92723 17.6212 2.59866 17.358C3.95035 16.8281 5.79697 16.4338 7.89418 16.2106C8.44336 16.1522 8.93594 16.55 8.99438 17.0992ZM22.0061 20.0442C22.006 20.0442 22.0052 20.0424 22.0042 20.0389C22.0058 20.0424 22.0063 20.0442 22.0061 20.0442ZM1.99389 20.0442C1.99374 20.0442 1.99422 20.0424 1.99577 20.0389C1.99482 20.0424 1.99404 20.0442 1.99389 20.0442Z" fill="black" style="fill:black;fill-opacity:1;"/>
</g>
<defs>
<clipPath id="clip0_842_1079">
<rect width="24" height="24" fill="white" style="fill:white;fill-opacity:1;"/>
</clipPath>
</defs>
</svg>

<svg xmlns="http://www.w3.org/2000/svg" width="24" height="24" viewBox="0 0 24 24"><g fill-rule="evenodd" clip-path="url(#a)" clip-rule="evenodd"><path d="M12 2a5 5 0 1 0 0 10 5 5 0 0 0 0-10M5 7a7 7 0 1 1 14 0A7 7 0 0 1 5 7"/><path d="M12 12a1 1 0 0 1 1 1v6a1 1 0 1 1-2 0v-6a1 1 0 0 1 1-1"/><path d="M8.994 17.1a1 1 0 0 1-.888 1.1c-2 .212-3.653.58-4.777 1.02-.567.222-.944.442-1.161.628A1 1 0 0 0 2.02 20c.04.056.14.168.386.327.435.28 1.13.57 2.079.83C6.368 21.67 9.025 22 12 22s5.632-.33 7.515-.843c.949-.26 1.644-.55 2.079-.83.246-.159.347-.271.386-.327a1 1 0 0 0-.148-.152c-.217-.186-.594-.406-1.16-.628-1.125-.44-2.778-.808-4.778-1.02a1 1 0 0 1 .212-1.99c2.097.224 3.944.618 5.295 1.148.672.263 1.277.581 1.732.97.449.384.867.944.867 1.672 0 .944-.689 1.6-1.323 2.008-.678.438-1.594.794-2.636 1.078-2.098.572-4.94.914-8.041.914s-5.943-.342-8.041-.914c-1.042-.284-1.958-.64-2.636-1.078C.689 21.6 0 20.944 0 20c0-.729.418-1.288.868-1.672.454-.389 1.06-.707 1.73-.97 1.352-.53 3.199-.924 5.296-1.147a1 1 0 0 1 1.1.888m13.012 2.944-.002-.005zm-20.012 0 .002-.005z" opacity=".55"/></g><defs><clipPath id="a"><path fill="#fff" d="M0 0h24v24H0z"/></clipPath></defs></svg>
